chains/chronicleyellowstone/logo.svg

<svg xmlns="http://www.w3.org/2000/svg" width="1080" height="1080" fill="none" viewBox="0 0 1080 1080"><path fill="#000" d="M363.076 392.227s-.977 18.524-36.874 78.947c-41.576 70.018-45.481 151.978-3.017 220.4 89.521 144.245 332.481 141.52 422.556.089 34.832-54.707 44.816-117.479 32.924-181.248 0 0-28.819-133.144-127.237-217.099 1.553 1.308 5.369 19.122 6.101 26.722 2.241 23.354.045 47.838-7.787 70.062-5.746 16.33-13.711 30.467-27.178 41.368 0-3.811-.954-10.635-.976-12.918-.644-46.508-18.659-89.582-48.011-125.743-25.647-31.552-60.812-53.089-97.84-68.932.931 3.191 2.662 16.419 2.906 19.033 1.908 21.958 2.263 52.713-.621 74.649s-7.832 33.878-14.554 54.441c-10.184 31.175-24.05 54.285-41.621 82.004-3.24 5.096-12.913 19.078-18.082 26.146 0 0-8.897-56.191-40.667-87.921z"/><path stroke="#000" stroke-width="24.75" d="m562.5 27.28 410.279 236.874a45 45 0 0 1 22.5 38.971v473.75a45 45 0 0 1-22.5 38.971L562.5 1052.72a44.99 44.99 0 0 1-45 0L107.221 815.846a45 45 0 0 1-22.5-38.971v-473.75a45 45 0 0 1 22.5-38.971L517.5 27.28a45 45 0 0 1 45 0Z"/></svg>

<svg width="1080" height="1080" viewBox="0 0 1080 1080" fill="none" xmlns="http://www.w3.org/2000/svg">
<path d="M363.076 392.227C363.076 392.227 362.099 410.751 326.202 471.174C284.626 541.192 280.721 623.152 323.185 691.574C412.706 835.819 655.666 833.094 745.741 691.663C780.573 636.956 790.557 574.184 778.665 510.415C778.665 510.415 749.846 377.271 651.428 293.316C652.981 294.624 656.797 312.438 657.529 320.038C659.77 343.392 657.574 367.876 649.742 390.1C643.996 406.43 636.031 420.567 622.564 431.468C622.564 427.657 621.61 420.833 621.588 418.55C620.944 372.042 602.929 328.968 573.577 292.807C547.93 261.255 512.765 239.718 475.737 223.875C476.668 227.066 478.399 240.294 478.643 242.908C480.551 264.866 480.906 295.621 478.022 317.557C475.138 339.493 470.19 351.435 463.468 371.998C453.284 403.173 439.418 426.283 421.847 454.002C418.607 459.098 408.934 473.08 403.765 480.148C403.765 480.148 394.868 423.957 363.098 392.227H363.076Z" fill="black"/>
<path d="M562.5 27.2798L972.779 264.154C986.702 272.193 995.279 287.049 995.279 303.125V776.875C995.279 792.951 986.702 807.807 972.779 815.846L562.5 1052.72C548.577 1060.76 531.423 1060.76 517.5 1052.72L107.221 815.846C93.2982 807.807 84.7213 792.951 84.7213 776.875V303.125C84.7213 287.048 93.2982 272.193 107.221 264.154L517.5 27.2798C531.423 19.2413 548.577 19.2413 562.5 27.2798Z" stroke="black" stroke-width="24.75"/>
</svg>
